X:1
T:Miriam-Roſe's Waltz
M:3/4
L:1/8
R:Air
C:T. S. Macdonald
K:D
%%text Slowly when not danced
FA | d3  f ec | A3 B AF | G2 g2 f/g/f/d/ | e4 FA | d3  f ec | A3 B AF | G2 B2 A/G/F/E/ | D4 :|:
fa | d'3 a bg | a f3 ef | g3 G FD        | E4 fa | d'3 a bg | f a3 ec | d2 g2 f/e/d/c/ | d4 :|]

